X:35
T:Mr. Garden (of Troup's) Reel
C:R. Petrie
S:Petrie's Second Collection of Strathspey Reels and Country Dances &c.
Z:Steve Wyrick , 6/5/04
N:Petrie's Second Collection, page 12
L:1/8
M:C
R:Reel
K:Cm
E|Cc Tc3/2(=B//c//) ec Tc3/2(=B//c//)|GBFB DB,B,D|Cc Tc3/2(=B//c//) ec Tc3/2(=B//c//)|dBfd  ecc:|
g|ecgc              bcgc             |dBfd bdgc  |ecgc              bcgc             |dBfd  eccg|
  ecgc              bcgc             |dBfd bdfd  |ecge              dBfd             |ecd=B cCC|]
